X:79
T:Wibsey Roundabout
T:to the tune "Hugh O'Donnell"
P:Hugh O'Donnell
C:Turlough O'Carolan
B:Barnes "English Country Dance Tunes" v.2 p.138
B:"Complete Collection ... of CAROLAN" Ossian
M:6/8
L:1/8
K:Gmaj clef=treble
P:A
D \
| "G"D2G GAG | "D"F2G A2c | "Em"B2E EGE | "D"A2D DFD \
| "G"G2D "C"GFE | "D"D3 d3 | "G"BGB BGB | "C"c3 e3 |
"G"d>ed "Em"BGB | "Am"c>dc "D"AFA | "G"B>cB "Em"GEG | "C"A>BA "D"FDF \
| "G"G2D "C"GFE | "D"D3 d3 | "C"cBA "D"GAF \
|1 "G"G3 G2 D :|2 "G"G3 G2 G |]
P:B
| "G"d2G d2G | "C"edc "G"BAG | "D"FAA ABA | FAA ABA \
| "Em"GBB BcB | EFG "D"FED | "Em"EFG "D"FGA | "C"EFG "D"AFD |
"G"d2d "C"e2e | "D"f2f "G"g3 | "G"g2d "C"g2c | "G"g2B "D"Aag \
| "D"fed ded | dcB Adc | "G"BAG "D"AGF |1 "G"G3 G2 G :|2 "G"G3 G2 D |]

